static/assets/images/icons/finish.svg

<svg width="256" height="256" viewBox="0 0 256 256" fill="none" xmlns="http://www.w3.org/2000/svg">
<path fill-rule="evenodd" clip-rule="evenodd" d="M86.4286 73.25H67.1429V47H86.4286V73.25ZM115.571 73.25H86.4286V99.5H67.1429V125.75H86.4286V152H67.1429V178.25H57.2857V152V125.75V99.5V73.25V47H67.1429V36.0714C67.1429 28.8523 61.2906 23 54.0714 23C46.8523 23 41 28.8523 41 36.0714V219.929C41 227.148 46.8523 233 54.0714 233C61.2906 233 67.1429 227.148 67.1429 219.929V178.25H86.4286V152H115.571V178.25H144.714V152H173.857V178.25H188C196.284 178.25 203 171.534 203 163.25V152H173.857V125.75H203V99.5H173.857V73.25H203V62C203 53.7157 196.284 47 188 47H173.857V73.25H144.714V47H115.571V73.25ZM115.571 99.5V73.25H144.714V99.5H115.571ZM115.571 125.75V99.5H86.4286V125.75H115.571ZM144.714 125.75V99.5H173.857V125.75H144.714ZM144.714 125.75H115.571V152H144.714V125.75Z" fill="black"/>
<path d="M57.2857 152H67.1429V125.75H57.2857V152Z" fill="black"/>
<path d="M67.1429 73.25H57.2857V99.5H67.1429V73.25Z" fill="black"/>
</svg>

<svg xmlns="http://www.w3.org/2000/svg" fill="none" viewBox="0 0 256 256"><path fill="#000" fill-rule="evenodd" d="M86.429 73.25H67.143V47h19.286zm29.142 0H86.429V99.5H67.143v26.25h19.286V152H67.143v26.25h-9.857V47h9.857V36.071C67.143 28.852 61.29 23 54.07 23S41 28.852 41 36.071V219.93c0 7.218 5.852 13.07 13.071 13.07 7.22 0 13.072-5.852 13.072-13.071V178.25h19.286V152h29.142v26.25h29.143V152h29.143v26.25H188c8.284 0 15-6.716 15-15V152h-29.143v-26.25H203V99.5h-29.143V73.25H203V62c0-8.284-6.716-15-15-15h-14.143v26.25h-29.143V47h-29.143zm0 26.25V73.25h29.143V99.5zm0 26.25V99.5H86.429v26.25zm29.143 0V99.5h29.143v26.25zm0 0h-29.143V152h29.143z" clip-rule="evenodd"/><path fill="#000" d="M57.286 152h9.857v-26.25h-9.857zm9.857-78.75h-9.857V99.5h9.857z"/></svg>
